X:1
T:Odenwald, 12.12.12.12.12.12
T:P. V., ca. 1894
T:Odenwald, 12.12.12.12.12.12
T:Public Domain,
T:Public Domain,
C:P. V., ca. 1894
Z:Public Domain,
%%score ( 1 2 ) ( 3 4 )
L:1/8
M:6/8
K:A
V:1 treble 
V:2 treble 
V:3 bass 
V:4 bass 
V:1
 [Ec]2 [Ec] ([Fd][Ec])[DB] | [CA]3 [CE]2 [EA] | [EG]2 [EA] [EB]2 [Ec] | (e2 c B3) | %4
 [Ec]2 [Ec] ([Fd][Ec])[DB] | [CA]3 [CE]2 [Ec] | [EB]2 [Ge] ([F^d][Ge])[Af] | [Ge]3- [Ge]2 z | %8
 [Ge]2 [GB] ([GB][^^F^A])[GB] | [Ac]3 A2 [Ac] | [Ge]2 [GB] ([GB][^^F^A])[GB] | [Ac]3- [Ac]2 [CE] | %12
 [Ec]2 [Ec] (Bc)[Ed] | [=Ge]3 [Fd]2 [FB] | (AG)[EA] [Ec]2 [DB] | [CA]3- [CA]2 z | %16
 [Ge]2 [GB] ([GB][^^F^A])[GB] | [Ac]3 A3 | [Ge]2 [GB] [GB][^^F^A][GB] | [Ac]6 | %20
 [Ec]2 [Ec] (Bc)[Ed] | [=Ge]3 [Fd]2 [FB] | (AG)[EA] [Ec]2 [DB] | [CA]6 |] %24
V:2
 x6 | x6 | x6 | E6 | x6 | x6 | x6 | x6 | x6 | x3 A2 x | x6 | x6 | x3 E2 x | x6 | E2 x4 | x6 | x6 | %17
 x3 A3 | x6 | x6 | x3 E2 x | x6 | E2 x4 | x6 |] %24
V:3
 [A,,A,]2 [A,,A,] [A,,A,]2 [A,,A,] | [A,,A,]3 [A,,A,]2 [A,,C] | [E,B,]2 [E,C] [E,G,]2 A, | %3
 (C2 B, G,3) | [A,,A,]2 [A,,A,] [A,,A,]2 [A,,A,] | [A,,A,]3 [A,,A,]2 [^A,,^^F,] | %6
 [B,,G,]2 [B,,B,] [B,,B,]2 [B,,B,] | [E,B,]3- [E,B,]2 z | [E,B,]2 [E,D] (DC)[E,D] | %9
 [A,E]3 [A,C]2 A, | [E,B,]2 [E,D] (DC)[E,D] | [A,E]3- [A,E]2 [A,,A,] | A,2 A, (G,A,)[E,B,] | %13
 [A,,C]3 [D,D]2 [D,D] | (CB,)[E,C] [E,A,]2 [E,G,] | [A,,A,]3- [A,,A,]2 z | z6 | A,2 E, C,2 A,, | %18
 E,2 E, E,E,E, | (E3 C3) | A,2 A, (G,A,)[E,B,] | [A,,C]3 [D,D]2 [D,D] | (CB,)[E,C] [E,A,]2 [E,G,] | %23
 [A,,A,]6 |] %24
V:4
 x6 | x6 | x5 A, | E,6 | x6 | x6 | x6 | x6 | x3 E,2 x | x5 A, | x3 E,2 x | x6 | A,2 A, F,2 x | x6 | %14
 E,2 x4 | x6 | x6 | E3 C3 | D3 D3 | A,6 | A,2 A, E,2 x | x6 | E,2 x4 | x6 |] %24

